src/components/Footer/images/logo-6.svg

<svg xmlns="http://www.w3.org/2000/svg" width="470" height="262" fill="none"><g fill="#2C2C2C" clip-path="url(#a)"><path d="M185.974 108.13c-14.712 0-19.22 9.285-19.22 14.421h10.15c.346-2.714 2.872-5.833 9.414-5.833 6.66 0 9.266 4.186 9.266 9.48h-4.949c-16.536 0-25.864 4.583-25.864 14.755 0 7.264 7.153 13.732 16.449 13.732 5.853 0 12.164-2.786 14.336-4.558l.149 3.386h9.834v-25.008c0-12.592-5.027-20.375-19.565-20.375Zm6.15 25.995h3.283v2.502c0 5.221-4.809 9.089-12.122 9.089-4.464 0-7.898-1.325-7.898-4.465 0-4.321 3.1-7.126 16.737-7.126ZM211.307 153.509v-44.428h15.874l8.212 32.275 8.22-32.275h15.86v44.428h-10.351v-32.001l-9.033 32.001h-9.534l-8.954-31.933v31.933h-10.294ZM296.455 136.843h10.103c-1.498 8.4-9.025 17.862-20.863 17.862-14.914 0-21.467-13.05-21.467-23.179 0-13.727 8.577-23.365 21.388-23.365 11.254 0 19.155 8.257 20.81 17.81h-9.918c-1.157-3.676-4.713-8.639-10.892-8.639-6.961 0-11.707 7.006-11.707 13.982 0 8.378 5.649 14.168 11.681 14.168 5.514 0 9.548-4.32 10.865-8.639Z"/><path d="M144 80v102.415h182.293V80H144Zm1.543 1.543H324.75v99.329H145.543V81.543Z"/></g><defs><clipPath id="a"><path fill="#fff" d="M144 80h182.293v102.415H144z"/></clipPath></defs></svg>

<svg width="470" height="262" viewBox="0 0 470 262" fill="none" xmlns="http://www.w3.org/2000/svg">
<g clip-path="url(#clip0_1_187)">
<path d="M185.974 108.13C171.262 108.13 166.754 117.415 166.754 122.551H176.904C177.25 119.837 179.776 116.718 186.318 116.718C192.978 116.718 195.584 120.904 195.584 126.198H190.635C174.099 126.198 164.771 130.781 164.771 140.953C164.771 148.217 171.924 154.685 181.22 154.685C187.073 154.685 193.384 151.899 195.556 150.127L195.705 153.513H205.539V128.505C205.539 115.913 200.512 108.13 185.974 108.13ZM192.124 134.125H195.407V136.627C195.407 141.848 190.598 145.716 183.285 145.716C178.821 145.716 175.387 144.391 175.387 141.251C175.387 136.93 178.487 134.125 192.124 134.125Z" fill="white"/>
<path d="M211.307 153.509V109.081H227.181L235.393 141.356L243.613 109.081H259.473V153.509H249.122V121.508L240.089 153.509H230.555L221.601 121.576V153.509H211.307Z" fill="white"/>
<path d="M296.455 136.843H306.558C305.06 145.243 297.533 154.705 285.695 154.705C270.781 154.705 264.228 141.655 264.228 131.526C264.228 117.799 272.805 108.161 285.616 108.161C296.87 108.161 304.771 116.418 306.426 125.971H296.508C295.351 122.295 291.795 117.332 285.616 117.332C278.655 117.332 273.909 124.338 273.909 131.314C273.909 139.692 279.558 145.482 285.59 145.482C291.104 145.482 295.138 141.162 296.455 136.843Z" fill="white"/>
<path d="M144 79.9999V80.7715V182.415H326.293V79.9999H144ZM145.543 81.5431H324.75V180.872H145.543V81.5431Z" fill="white"/>
</g>
<defs>
<clipPath id="clip0_1_187">
<rect width="182.293" height="102.415" fill="white" transform="translate(144 80)"/>
</clipPath>
</defs>
</svg>
